packages/components/bolt-icons/src/svgs/pega/pega-folder-single.svg

<svg viewBox="0 0 32 32" xmlns="http://www.w3.org/2000/svg"><path fill="#fff" d="m29.64 29.17h-27.28a2.36 2.36 0 0 1 -2.36-2.35v-21.65a2.35 2.35 0 0 1 2.36-2.34h8.1a1 1 0 0 1 .86.49l2.09 3.55h16.23a2.35 2.35 0 0 1 2.36 2.34v17.61a2.36 2.36 0 0 1 -2.36 2.35zm-27.28-24.34a.35.35 0 0 0 -.36.34v21.65a.35.35 0 0 0 .36.35h27.28a.35.35 0 0 0 .36-.35v-17.61a.35.35 0 0 0 -.36-.34h-16.81a1 1 0 0 1 -.86-.5l-2.08-3.54z"/></svg>

<svg id="icon-folder-single" data-name="folder-single" xmlns="http://www.w3.org/2000/svg" viewBox="0 0 32 32"><path d="M29.64,29.17H2.36A2.36,2.36,0,0,1,0,26.82V5.17A2.35,2.35,0,0,1,2.36,2.83h8.1a1,1,0,0,1,.86.49l2.09,3.55H29.64A2.35,2.35,0,0,1,32,9.21V26.82A2.36,2.36,0,0,1,29.64,29.17ZM2.36,4.83A.35.35,0,0,0,2,5.17V26.82a.35.35,0,0,0,.36.35H29.64a.35.35,0,0,0,.36-.35V9.21a.35.35,0,0,0-.36-.34H12.83a1,1,0,0,1-.86-.5L9.89,4.83Z"/></svg>
